static/dist/images/icons/google-play.svg

<?xml version="1.0" encoding="utf-8"?>
<!-- Generator: Adobe Illustrator 18.1.1, SVG Export Plug-In . SVG Version: 6.00 Build 0)  -->
<!DOCTYPE svg PUBLIC "-//W3C//DTD SVG 1.1//EN" "http://www.w3.org/Graphics/SVG/1.1/DTD/svg11.dtd">
<svg version="1.1" id="Google_Play" xmlns="http://www.w3.org/2000/svg" xmlns:xlink="http://www.w3.org/1999/xlink" x="0px"
	 y="0px" viewBox="0 0 20 20" enable-background="new 0 0 20 20" xml:space="preserve">
<path d="M4.942627,18.0508423l7.6660156-4.3273926l-1.6452026-1.8234253L4.942627,18.0508423z M2.1422119,2.1231079
	C2.0543823,2.281311,2,2.4631958,2,2.664917v15.1259766c0,0.2799683,0.1046143,0.5202026,0.2631226,0.710144l7.6265259-7.7912598
	L2.1422119,2.1231079z M17.4795532,9.4819336l-2.6724854-1.508606l-2.72229,2.7811279l1.9516602,2.1630249l3.4431152-1.9436035
	C17.7927856,10.8155518,17.9656372,10.5287476,18,10.2279053C17.9656372,9.927063,17.7927856,9.6402588,17.4795532,9.4819336z
	 M13.3649292,7.1592407L4.1452026,1.954834l6.8656616,7.609314L13.3649292,7.1592407z"/>
</svg>

<svg xmlns="http://www.w3.org/2000/svg" viewBox="0 0 20 20"><path d="M4.943 18.05l7.666-4.327-1.646-1.823-6.02 6.15zm-2.8-15.927c-.089.158-.143.34-.143.542V17.79c0 .28.105.52.263.71l7.627-7.79-7.748-8.587zM17.48 9.482l-2.673-1.509-2.722 2.781 1.951 2.163 3.444-1.943a.946.946 0 0 0 .52-.746.946.946 0 0 0-.52-.746zm-4.115-2.323l-9.22-5.204 6.866 7.61 2.354-2.406z"/></svg>
